svg/map/lifebuoy_fill.svg

<?xml version="1.0" encoding="UTF-8"?>
<svg width="24px" height="24px" viewBox="0 0 24 24" version="1.1" xmlns="http://www.w3.org/2000/svg" xmlns:xlink="http://www.w3.org/1999/xlink">
    <title>lifebuoy_fill</title>
    <g id="Icon" stroke="none" stroke-width="1" fill="none" fill-rule="evenodd">
        <g id="Map" transform="translate(-816.000000, -48.000000)">
            <g id="lifebuoy_fill" transform="translate(816.000000, 48.000000)">
                <path d="M24,0 L24,24 L0,24 L0,0 L24,0 Z M12.5935,23.2578 L12.5819,23.2595 L12.5109,23.295 L12.4919,23.2987 L12.4767,23.295 L12.4057,23.2595 C12.3958,23.2564 12.387,23.259 12.3821,23.2649 L12.378,23.2758 L12.3609,23.7031 L12.3659,23.7235 L12.3769,23.7357 L12.4805,23.8097 L12.4953,23.8136 L12.5071,23.8097 L12.6107,23.7357 L12.6233,23.7197 L12.6267,23.7031 L12.6096,23.2758 C12.6076,23.2657 12.601,23.2593 12.5935,23.2578 Z M12.8584,23.1453 L12.8445,23.1473 L12.6598,23.2397 L12.6499,23.2499 L12.6472,23.2611 L12.6651,23.6906 L12.6699,23.7034 L12.6784,23.7105 L12.8793,23.8032 C12.8914,23.8069 12.9022,23.803 12.9078,23.7952 L12.9118,23.7812 L12.8777,23.1665 C12.8753,23.1546 12.8674,23.147 12.8584,23.1453 Z M12.143,23.1473 C12.1332,23.1424 12.1222,23.1453 12.1156,23.1526 L12.1099,23.1665 L12.0758,23.7812 C12.0751,23.7927 12.0828,23.8019 12.0926,23.8046 L12.1083,23.8032 L12.3092,23.7105 L12.3186,23.7024 L12.3225,23.6906 L12.3404,23.2611 L12.3372,23.2485 L12.3278,23.2397 L12.143,23.1473 Z" id="MingCute" fill-rule="nonzero"></path>
                <path d="M12,2 C17.5228,2 22,6.47715 22,12 C22,17.5228 17.5228,22 12,22 C6.47715,22 2,17.5228 2,12 C2,6.47715 6.47715,2 12,2 Z M15.3536,14.6464 L14.6464,15.3536 C14.2559,15.7441 14.2559,16.3772 14.6464,16.7678 L16.2322,18.3536 C16.6228,18.7441 17.2559,18.7441 17.6464,18.3536 L18.3536,17.6464 C18.7441,17.2559 18.7441,16.6228 18.3536,16.2322 L16.7678,14.6464 C16.3772,14.2559 15.7441,14.2559 15.3536,14.6464 Z M8.64645,14.6464 C8.28596077,14.2859385 7.71873355,14.2582107 7.32643848,14.5632166 L7.23223,14.6464 L5.64645,16.2322 C5.28596077,16.5927538 5.25823083,17.1599349 5.56326018,17.5521989 L5.64645,17.6464 L6.3535525,18.3536 C6.71403942,18.7140615 7.28126646,18.7417893 7.67356153,18.4367834 L7.76777,18.3536 L9.3535525,16.7678 C9.71403942,16.4072462 9.74176919,15.8400651 9.43674179,15.4478011 L9.3535525,15.3536 L8.64645,14.6464 Z M12,9 C10.3431,9 9,10.3431 9,12 C9,13.6569 10.3431,15 12,15 C13.6569,15 15,13.6569 15,12 C15,10.3431 13.6569,9 12,9 Z M17.6465,5.64644 C17.2859462,5.28595077 16.7187651,5.25822083 16.3264224,5.56325018 L16.2322,5.64644 L14.6465,7.23222 C14.2859462,7.59270923 14.2582112,8.15993645 14.5632953,8.55223152 L14.6465,8.64644 L15.3536,9.3535425 C15.7140615,9.71402942 16.2813207,9.74175919 16.6735973,9.43673179 L16.7678,9.3535425 L18.3536,7.76776 C18.7140615,7.40727077 18.7417893,6.84004355 18.4367834,6.44775044 L18.3536,6.3535425 L17.6465,5.64644 Z M7.76778,5.64644 C7.40729077,5.28595077 6.84006355,5.25822083 6.44777044,5.56325018 L6.3535625,5.64644 L5.64646,6.3535425 C5.28597077,6.71402942 5.25824083,7.28125646 5.56327018,7.67355153 L5.64646,7.76776 L7.23224,9.3535425 C7.59272923,9.71402942 8.15995645,9.74175919 8.55224366,9.43673179 L8.64645,9.3535425 L9.3535625,8.64644 C9.71404942,8.28595077 9.74177919,7.71872355 9.43675179,7.32642848 L9.3535625,7.23222 L7.76778,5.64644 Z" id="形状" fill="#09244B"></path>
            </g>
        </g>
    </g>
</svg>

<svg xmlns="http://www.w3.org/2000/svg" width="24" height="24"><g fill="none" fill-rule="evenodd"><path d="M24 0v24H0V0h24ZM12.594 23.258l-.012.002-.071.035-.02.004-.014-.004-.071-.036c-.01-.003-.019 0-.024.006l-.004.01-.017.428.005.02.01.013.104.074.015.004.012-.004.104-.074.012-.016.004-.017-.017-.427c-.002-.01-.009-.017-.016-.018Zm.264-.113-.014.002-.184.093-.01.01-.003.011.018.43.005.012.008.008.201.092c.012.004.023 0 .029-.008l.004-.014-.034-.614c-.003-.012-.01-.02-.02-.022Zm-.715.002a.023.023 0 0 0-.027.006l-.006.014-.034.614c0 .012.007.02.017.024l.015-.002.201-.093.01-.008.003-.011.018-.43-.003-.012-.01-.01-.184-.092Z"/><path fill="#09244B" d="M12 2c5.523 0 10 4.477 10 10s-4.477 10-10 10S2 17.523 2 12 6.477 2 12 2Zm3.354 12.646-.708.708a1 1 0 0 0 0 1.414l1.586 1.586a1 1 0 0 0 1.414 0l.708-.708a1 1 0 0 0 0-1.414l-1.586-1.586a1 1 0 0 0-1.414 0Zm-6.708 0a1 1 0 0 0-1.32-.083l-.094.083-1.586 1.586a1 1 0 0 0-.083 1.32l.083.094.708.708a1 1 0 0 0 1.32.083l.094-.083 1.586-1.586a1 1 0 0 0 .083-1.32l-.083-.094-.708-.708ZM12 9a3 3 0 1 0 0 6 3 3 0 0 0 0-6Zm5.647-3.354a1 1 0 0 0-1.32-.083l-.095.083-1.585 1.586a1 1 0 0 0-.084 1.32l.083.094.708.708a1 1 0 0 0 1.32.083l.094-.083 1.586-1.586a1 1 0 0 0 .083-1.32l-.083-.094-.707-.708Zm-9.88 0a1 1 0 0 0-1.32-.083l-.093.083-.708.708a1 1 0 0 0-.083 1.32l.083.094 1.586 1.586a1 1 0 0 0 1.32.083l.094-.083.708-.708a1 1 0 0 0 .083-1.32l-.083-.094-1.586-1.586Z"/></g></svg>
